X:1
T:Ave Regina Caelorum
T:Giovanni Battista Riccio
T:1620
T:Ave Regina Caelorum
T:(C) Wim Looyestijn - 2015
T:(C) Wim Looyestijn - 2015
T:(C) Wim Looyestijn - 2015
T:(C) Wim Looyestijn - 2015
T:(C) Wim Looyestijn - 2015
T:(C) Wim Looyestijn - 2015
C:Giovanni Battista Riccio
Z:(C) Wim Looyestijn - 2015
%%score 1 2
L:1/8
Q:1/4=120
M:3/1
K:F
V:1 treble nm="MusicXML Part"
V:2 bass nm="MusicXML Part"
V:1
 F8 G8 A8 | B16 B8 | A8 G16 | F16 z8 | c16 A8 | d16 B8 | c12 A4 A8 | A16 G8 | F4 E4 F4 D4 E8 | %9
w: A- ve Re-|gi- na|cae- lo-|rum,|a- ve,|a- ve|Do- mi- na|An- ge-|lo- * * * *|
[M:4/4] F8 | d4 c4 | z2 dc BAGF | G4 F4 | z2 FG ABcA | =B2 c4 B2 | c4 B4- | B4 A4 | G8 | F8 | %19
w: rum.|Sal- ve,|sal- ve, sal- ve ra- dix|por- ta|ex qua mun- do lux est|or- * *|ta, lux|* est|or-|ta.|
[M:3/1] F8 G8 A8 | B16 B8 | A8 G16 | F16 z8 | c16 A8 | d16 B8 | c12 A4 A8 | A16 G8 | %27
w: A- ve Re-|gi- na|cae- lo-|rum,|a- ve,|a- ve|Do- mi- na|An- ge-|
 F4 E4 F4 D4 E8 |[M:4/4] F8 | c4 G4 | c4 G4 | ABcd c4 | B2 dc BAGF | E4 D4 | z2 d4 c2- | c2 B4 A2 | %36
w: lo- * * * *|rum.|Gau- de,|gau- de|Vir- go Glo- ri- o-|sa, su- per om- nes spe- ci-|o- sa,|su- per|* om- nes|
 G2 F2 G4 | A8 |[M:3/1] F8 G8 A8 | B16 B8 | A8 G16 | F16 z8 | c16 A8 | d16 B8 | c12 A4 A8 | %45
w: spe- ci- o-|sa.|A- ve Re-|gi- na|cae- lo-|rum,|a- ve,|a- ve|Do- mi- na|
 A16 G8 | F4 E4 F4 D4 E8 |[M:4/4] F8 | A4 G4 | c4 G4 | z2 c2 d4- | d2 cB c4 | B8 | z8 | %54
w: An- ge-|lo- * * * *|rum.|Va- le,|va- le|o val-|* de de- co-|ra,||
 z2 dc BBdc | BB B4 AG | A4 G2 GF | EEGF EE E2- | E2 DC D4 | C2 cB AAcB | AA A4 GF | G8 | F8 | %63
w: et pro- no- bis, et pro-|no- bis Chris- tum ex-|o- ra, et pro|no- bis, et pro no- bis Chris-|* tum ex- o-|ra, et pro- no- bis, et pro-|no- bis Chris- tum ex-|o-|ra.|
[M:3/1] F8 G8 A8 | B16 B8 | A8 G16 | F16 z8 | c16 A8 | d16 B8 | c12 A4 A8 | A16 G8 | %71
w: A- ve Re-|gi- na|cae- lo-|rum,|a- ve,|a- ve|Do- mi- na|An- ge-|
 F4 E4 F4 D4 E8 |[M:4/4] F4 z2 A2 | A3 A A2 c2 | A3 A A4 | z2 A4 GF | G4 G2 G2 | c4 A4 | z2 A2 d4 | %79
w: lo- * * * *|rum. Dig-|na- re me lau-|da- re te|Vir- go sa-|cra- ta, da|mi- hi,|da mi-|
 B2 B2 e4- | e2 dc d4 | c8 | z8 | z4 z2 cB | A2 A2 G4 | F4 F2 G2 | A2 B2 c2 BA | G2 A2 B2 AG | %88
w: hi, da mi-|* hi vir- tu-|tem||con- tra-|hos- tes tu-|os. A- *|||
 F2 G2 A2 GF | E2 C2 F4- | F4 E4 | F16 |] %92
w: |||men.|
V:2
 F,8 E,8 F,8 | B,,16 B,,8 | F,,8 C,16 | F,,16 z8 | F,,16 F,,8 | B,,16 B,,8 | F,,12 F,,4 F,,8 | %7
w: |||||||
 F,,16 C,8 | D,4 C,4 D,4 B,,4 C,8 |[M:4/4] F,,8 | B,,4 F,,4 | z2 B,,A,, B,,F,, C,D, | C,4 F,,4 | %13
w: ||||||
 z2 F,E, F,G, A,F, | G,8 | C,4 G,,3 A,, | B,,4 F,,4 | C,8 | F,,8 |[M:3/1] F,8 E,8 F,8 | %20
w: |#||||||
 B,,16 B,,8 | F,,8 C,16 | F,,16 z8 | F,,16 F,,8 | B,,16 B,,8 | F,,12 F,,4 F,,8 | F,,16 C,8 | %27
w: |||||||
 D,4 C,4 D,4 B,,4 C,8 |[M:4/4] F,,8 | F,4 E,4 | F,4 E,4 | F,G, A,B, F,4 | B,,2 B,,A,, G,,F,, C,D, | %33
w: ||* 6|* 6|||
 A,,4 D,4 | B,,4 A,,4 | G,,4 F,,4 | C,2 D,2 C,4 | F,,8 |[M:3/1] F,8 E,8 F,8 | B,,16 B,,8 | %40
w: |||||||
 F,,8 C,16 | F,,16 z8 | F,,16 F,,8 | B,,16 B,,8 | F,,12 F,,4 F,,8 | F,,16 C,8 | %46
w: ||||||
 D,4 C,4 D,4 B,,4 C,8 |[M:4/4] F,,8 | F,4 C,4 | A,,4 F,,4- | F,,2 F,,2 B,,2 A,,G,, | F,,8 | %52
w: ||* 6||||
 B,,2 B,,A,, G,,G,, B,,A,, | G,,G,, D,4 _E,E, | D,4 G,,4 | G,,6 D,_E, | D,4 G,,4 | C,6 B,,A,, | %58
w: ||||||
 G,,8 | C,4 F,,4 | F,6 E,D, | C,8 | C,8 |[M:3/1] F,8 E,8 F,8 | B,,16 B,,8 | F,,8 C,16 | F,,16 z8 | %67
w: |||||||||
 F,,16 F,,8 | B,,16 B,,8 | F,,12 F,,4 F,,8 | F,,16 C,8 | D,4 C,4 D,4 B,,4 C,8 |[M:4/4] F,,6 F,,2 | %73
w: ||||||
 F,,3 F,, F,,2 F,,2 | F,,3 F,, F,,4 | F,6 E,D, | C,4 C,4- | C,2 C,2 F,4 | D,6 D,2 | G,4 _E,2 E,2 | %80
w: |||||||
 B,,8 | F,,6 F,E, | D,2 D,2 C,4 | F,6 A,G, | F,2 F,2 C,4 | F,,8 | F,,2 G,,2 A,,2 B,,2 | %87
w: |||||||
 C,2 B,,A,, G,,2 A,,2 | B,,2 A,,G,, F,,2 G,,2 | A,,6 B,,2 | C,8 | F,,16 |] %92
w: |||||

